packages/core/src/svgs/bax.svg

<svg width="24" height="24" viewBox="0 0 24 24" fill="none" xmlns="http://www.w3.org/2000/svg">
<g clip-path="url(#clip0_31_6758)">
<path d="M0 0H24V24H0V0Z" fill="#F0F3FA"/>
<path fill-rule="evenodd" clip-rule="evenodd" d="M16.7729 16.4723C18.7396 14.9675 19.1142 12.1535 17.6099 10.1868C16.1052 8.22012 13.2912 7.84554 11.3245 9.34983C9.09076 11.059 8.45733 14.365 8.13376 17.0444C8.1203 17.1541 8.15036 17.2647 8.2175 17.3525C8.28463 17.4403 8.3835 17.4983 8.4929 17.5141C11.1466 17.9007 14.5508 18.172 16.7729 16.4723ZM16.1416 15.8371C16.8993 15.2574 17.3957 14.4005 17.5215 13.4548C17.6474 12.5092 17.3924 11.5522 16.8128 10.7945C16.2331 10.0369 15.3761 9.54049 14.4305 9.41462C13.4848 9.28876 12.5279 9.54371 11.7702 10.1234C10.001 11.4773 9.48333 14.08 9.22019 16.2147C9.20663 16.3245 9.23676 16.4353 9.3041 16.5232C9.37143 16.611 9.47058 16.6689 9.58019 16.6844C11.6969 16.9887 14.3815 17.1833 16.1416 15.8371Z" fill="#70B1C7"/>
<path fill-rule="evenodd" clip-rule="evenodd" d="M14.9727 12.4474C16.6895 10.6628 16.6342 7.8244 14.8497 6.10797C13.0647 4.39154 10.2262 4.44683 8.5098 6.2314C6.56023 8.25854 6.43423 11.6224 6.51951 14.3198C6.5268 14.55 6.71537 14.7313 6.94551 14.73C9.62708 14.7107 13.0334 14.4643 14.9727 12.4474ZM14.2527 11.9151C14.9068 11.2262 15.2618 10.3065 15.2402 9.3568C15.2187 8.40708 14.8223 7.50444 14.1376 6.84591C13.453 6.18738 12.5356 5.82644 11.5857 5.84186C10.6359 5.85729 9.73073 6.24784 9.0678 6.92826C7.52366 8.53412 7.40537 11.1857 7.46837 13.3354C7.47151 13.446 7.51795 13.551 7.59771 13.6277C7.67746 13.7044 7.78415 13.7467 7.8948 13.7455C10.0334 13.7254 12.7162 13.512 14.2527 11.9151Z" fill="#FF3838"/>
</g>
<defs>
<clipPath id="clip0_31_6758">
<rect width="24" height="24" fill="white"/>
</clipPath>
</defs>
</svg>

<svg xmlns="http://www.w3.org/2000/svg" width="24" height="24" fill="none" viewBox="0 0 24 24"><g clip-path="url(#a)"><path fill="#F0F3FA" d="M0 0h24v24H0z"/><path fill="#70B1C7" fill-rule="evenodd" d="M16.773 16.472a4.484 4.484 0 0 0-5.448-7.122c-2.234 1.709-2.868 5.015-3.191 7.694a.42.42 0 0 0 .359.47c2.654.387 6.058.658 8.28-1.042m-.631-.635a3.597 3.597 0 1 0-4.372-5.714c-1.769 1.354-2.287 3.957-2.55 6.092a.42.42 0 0 0 .36.47c2.117.304 4.802.498 6.562-.848" clip-rule="evenodd"/><path fill="#FF3838" fill-rule="evenodd" d="M14.973 12.447A4.483 4.483 0 1 0 8.51 6.231C6.56 8.26 6.434 11.622 6.52 14.32c.007.23.195.411.426.41 2.681-.02 6.087-.266 8.027-2.283m-.72-.532a3.597 3.597 0 0 0-5.185-4.987c-1.544 1.606-1.663 4.258-1.6 6.407a.42.42 0 0 0 .427.41c2.138-.02 4.821-.233 6.358-1.83" clip-rule="evenodd"/></g><defs><clipPath id="a"><path fill="#fff" d="M0 0h24v24H0z"/></clipPath></defs></svg>
